!!!COM:	Bach, Johann Sebastian
!!!OMV:	Oh God, look down from Heaven
!!!OTL:	Oh God, look down from Heaven
**kern	**fb	**kern	**kern	**kern	**kern
*part5	*part5	*part4	*part3	*part2	*part1
*staff5	*	*staff4	*staff3	*staff2	*staff1
*I"Continuo	*	*I"Voice	*I"Voice	*I"Voice	*I"Voice
*I'Cont.	*	*I'V	*I'V	*I'V	*I'V
*clefF4	*	*clefF4	*clefGv2	*clefG2	*clefG2
*Trd0c0	*	*	*	*	*
*k[f#]	*	*k[f#]	*k[f#]	*k[f#]	*k[f#]
*M4/4	*	*M4/4	*M4/4	*M4/4	*M4/4
4E	#	4E	4e	4g#X	4b
=2	=2	=2	=2	=2	=2
4A	.	4A	4e	4a	4cc
4B	#6\	4B	4d	4g#X	4b
4c	.	4c	4e	4a	4a
8BL	#6\ 4 3	8BL	8dL	8g#L	4ee
8AJ	.	8AJ	8cJ	8aJ	.
=3	=3	=3	=3	=3	=3
4G#X	6 5	4G#X	4B	4b	8eeL
.	.	.	.	.	8ddJ
4A	.	4A	8cL	8eL	4cc
.	.	.	8dJ	8f#J	.
4E;	#	4E;	4e;	4g#X;	4b;
4BB	#6\ nr5	4BB	4fn	4g#	4dd
=4	=4	=4	=4	=4	=4
8CL	6	8CL	4e	4a	4cc
8DJ	.	8DJ	.	.	.
4E	#	4E	8eL	4g#X	4b
.	.	.	8dJ	.	.
4Fn	.	4Fn	4c	8aL	4a
.	.	.	.	8gnJ	.
8EL	.	8EL	4d	4fn	8b
8DJ	.	8DJ	.	.	16ccLL
.	.	.	.	.	16ddJJ
=	=	=	=	=	=
2E	6 #	2E	8G#X	2e	4cc
.	4	.	4A	.	.
.	5	.	.	.	4b
.	#	.	8G#	.	.
4AA;	.	4AA;	4c;	4e;	4a;
=5:|!	=5:|!	=5:|!	=5:|!	=5:|!	=5:|!
4F#	6	4F#	4A	4d	4a
=6	=6	=6	=6	=6	=6
!!linebreak:original
8GL	.	8GL	8GL	8dL	8bL
8F#J	#6\	8F#J	8AJ	8d#XJ	8aJ
4E	.	4E	4B	4e	4g
8BL	#	8BL	4B	4d#	4f#
8AJ	.	8AJ	.	.	.
8GL	6	8GL	8BL	8eL	8eL
8F#J	#6\	8F#J	8AJ	8d#J	8f#J
=7	=7	=7	=7	=7	=7
8EL	.	8EL	4B	8eL	4g
8DJ	.	8DJ	.	8gJ	.
4C	6	4C	4c	8f#L	4a
.	.	.	.	8eJ	.
4BB;	#	4BB;	4F#;	4d#X;	4b;
4E	8	4E	8eL	4B	4g
.	7	.	8dnJ	.	.
=8	=8	=8	=8	=8	=8
4Fn	5	4Fn	8cL	4A	8aL
.	.	.	8dJ	.	8bJ
8CL	6	8CL	4e	4a	4cc
8DJ	.	8DJ	.	.	.
4E	#	4E	4e	4g#X	4b
8AAL	.	8AAL	8eL	4a	8ccL
8BBJ	.	8BBJ	8dJ	.	8bJ
=9	=9	=9	=9	=9	=9
8CL	6	8CL	4c	4e	4a
8DJ	.	8DJ	.	.	.
4E	#	4E	4B	4e	4g#X
4AA;	.	4AA;	4c;	4e;	4a;
4A	.	4A	4c	4e	4a
=10	=10	=10	=10	=10	=10
4G#X	6	4G#X	4B	4e	4ee
8AL	.	8AL	4A	4e	4cc
8GnJ	.	8GnJ	.	.	.
8FnL	.	8FnL	4A	4fn	4dd
8EJ	.	8EJ	.	.	.
8DL	.	8DL	4B-X	4g	4ee
8C#XJ	-r7 5	8C#XJ	.	.	.
=11	=11	=11	=11	=11	=11
!!pagebreak:original
4D	#	4D	8AL	8f#L	4dd
.	#4|	.	8EJ	8g#XJ	.
4D#X	7 5	4D#X	4F#	4a	4cc
4E;	#	4E;	4G#X;	4e;	4b;
=||	=||	=||	=||	=||	=||
*-	*-	*-	*-	*-	*-
!!!system-decoration: s1,s2,s3,s4,s5
